X:1
T:The Blessèd Feast
T:The Blessèd Feast
T:William Howard Doane
T:Frances Janes (Fanny) Crosby, 1877
T:Public Domain Courtesy of the Cyber Hymnal™
T:Public Domain Courtesy of the Cyber Hymnal™
C:William Howard Doane
Z:Public Domain
Z:Courtesy of the Cyber Hymnal™
%%score 1 2
L:1/8
Q:1/4=105
M:4/4
K:Ab
V:1 treble 
V:2 bass 
V:1
 [Ec]3 [Ec] [Fd][Ec][EB][EA] | [EG][DF][FA][DF] [CE]3 [EA] | [EA]2 [EG]2 [EB]3 [EB] | %3
w: 1.~Come, poor sin- ner, to the|bless- èd, bless- èd feast, O|hear the call— thy|
w: 2.~Art thou wear- y? Wouldst thou|lay thy weight a- side? Then|rest thee here, the|
w: 3.~Hark, He bids thee to the|crim- son fount- ain go, It|flows so free, so|
w: 4.~Come to Je- sus, and thy|bur- den He will bear, The|feast is spread, lift|
 [EB]2 [EA]2 [Ec]4 | [Ec]3 [Ec] [Fd][Ec][EB][EA] | [EG][DF][FA][DF] [CE]2 [EA][Ec] | %6
w: Sav- ior’s call;|Haste to meet Him, He will|wel- come thee His guest, O re-|
w: cross is near;|See where Je- sus thy Re-|deem- er bled and died, Come and|
w: pure for thee;|He will wash thee and will|make thee white as snow, Thou His|
w: up thy head;|Come, and rest thee in the|Sav- ior’s gen- tle care, By His|
 [Ec]2 [EB]2 [Ed]3 [EG] | [EA]6 ||"^Refrain" [CA][Ec] x6 | [Ae]3 [Ae] [Ec]2 [EA][Ec] | %10
w: joice, there’s room for|all.|||
w: taste His mer- cy|here.|Who- so-|ev- er will in that|
w: hap- py child shalt|be.|||
w: love thou shalt be|fed.|||
 [Ec]3 [EB] [EB]2 [CA][Ec] | [Ae]3 [Ae] [Ec]2 [EA][Ec] | [Ec]3 [EB] [EB]4 | %13
w: |||
w: feast may share, In our|Fa- ther’s house there is|bread to spare;|
w: |||
w: |||
 [Ec]3 [Ec] [Fd][Ec][EB][EA] | [EG][DF][FA][DF] [CE]2 [EA][Ec] | [Ec]2 [EB]2 [Ed]3 [EG] | [EA]8 |] %17
w: ||||
w: Come to Je- sus, He is|wait- ing, wait- ing now, Come, O|come, there’s room for|all.|
w: ||||
w: ||||
V:2
 [A,,A,]3 [A,,A,] [A,,A,][A,,A,][C,A,][C,A,] | [D,A,][D,A,][D,D][D,A,] [A,,A,]3 [A,,C] | %2
 [E,C]2 [E,B,]2 [E,D]3 [E,D] | [A,D]2 [A,C]2 [A,,A,]4 | %4
 [A,,A,]3 [A,,A,] [A,,A,][A,,A,][C,A,][C,A,] | [D,A,][D,A,][D,D][D,A,] [A,,A,]2 [C,A,][A,,A,] | %6
 [E,A,]2 [E,G,]2 [E,B,]3 [E,D] | [A,,C]6 || A,A, [A,C]3 [A,C] [A,,A,]2 | %9
 [C,A,][A,,A,] [E,A,]3 [E,G,] [E,G,]2 | A,A, [A,C]3 [A,C] [A,,A,]2 | %11
 [C,A,][A,,A,] [E,A,]3 [E,G,] [E,G,]2- | [E,G,]2 [A,,A,]3 [A,,A,][A,,A,][A,,A,] | %13
 [C,A,][C,A,][D,A,][D,A,] [D,D][D,A,] [A,,A,]2 | [C,A,][A,,A,] [E,A,]2 [E,G,]2 [E,B,]2- | %15
 [E,B,][E,D] [A,,C]6- | [A,,C]2 x6 |] %17

